!!!OTL: Siehgst an doch do koemmt er, kleena Schrittla nimmt er
!!!ARE: Europa, Mitteleuropa, Deutschland, Ober - Franken, Autenhausen
!!!SCT: V0003
!!!YEM: Copyright 1995, estate of Helmut Schaffrath.
**kern
*ICvox
*Ivox
*M2/4
*k[]
*C:
{8.G
16F
8E
8F
=1
4G
4c}
=2
{8.G
16F
8E
8F
=3
4G
4c}
=4
{8.d
16d
8d
8c
=5
8B
8A
4G}
=6
{8G
8G
8A
16B
16B
=7
8c
8c
4c}
==
!!!AGN: Geselligkeits - Lied, Scherz
!!!ONB: ESAC (Essen Associative Code) Database: VARIANT
!!!AMT: simple duple
!!!AIN: vox
!!!EED: Helmut Schaffrath
!!!EEV: 1.0
*-
